svgs/generic_earth.svg

<svg width="192" height="192" viewBox="0 0 192 192" fill="none" xmlns="http://www.w3.org/2000/svg">
<path d="M96 170C136.869 170 170 136.869 170 96C170 55.1309 136.869 22 96 22C55.1309 22 22 55.1309 22 96C22 136.869 55.1309 170 96 170Z" stroke="black" stroke-width="12" stroke-miterlimit="15" stroke-linecap="round" stroke-linejoin="round"/>
<path d="M24.5 77C28.5 63.5 42.1888 51.1082 56.5 56.5C70.8112 61.8918 58.1224 88.5149 76.3112 97.0074C94.5 105.5 110.818 89.7042 104.5 68.7678C98.1818 47.8314 119.15 44.8296 107 38.5C94.8497 32.1704 91.7902 38.0936 84.5 23M127.5 32C126 39.5 123.392 48.7753 137 59C150.608 69.2247 160.07 66.9476 162.5 65C156.992 75.0624 150 87.5 169 97.0074M56.5 157C55.204 148.885 50.8937 135.715 75 140C92 143.022 104.498 146.514 119 136.5C140 122 149.458 133.354 148 146.5" stroke="black" stroke-width="12" stroke-linecap="round" stroke-linejoin="round"/>
<path d="M23 97.5C32.1667 100 46.5 110.8 34.5 132" stroke="black" stroke-width="12" stroke-linecap="round" stroke-linejoin="round"/>
</svg>

<svg width="192" height="192" viewBox="0 0 192 192" fill="none" xmlns="http://www.w3.org/2000/svg"><path d="M96 170c40.869 0 74-33.131 74-74 0-40.87-33.131-74-74-74-40.87 0-74 33.13-74 74 0 40.869 33.13 74 74 74Z" stroke="#000" stroke-width="12" stroke-miterlimit="15" stroke-linecap="round" stroke-linejoin="round"/><path d="M24.5 77c4-13.5 17.689-25.892 32-20.5 14.311 5.392 1.622 32.015 19.811 40.507 18.189 8.493 34.507-7.303 28.189-28.24C98.182 47.832 119.15 44.83 107 38.5c-12.15-6.33-15.21-.406-22.5-15.5m43 9c-1.5 7.5-4.108 16.775 9.5 27 13.608 10.225 23.07 7.948 25.5 6-5.508 10.062-12.5 22.5 6.5 32.007M56.5 157c-1.296-8.115-5.606-21.285 18.5-17 17 3.022 29.498 6.514 44-3.5 21-14.5 30.458-3.146 29 10M23 97.5c9.167 2.5 23.5 13.3 11.5 34.5" stroke="#000" stroke-width="12" stroke-linecap="round" stroke-linejoin="round"/></svg>
